app/dist/common/images/foxtons-plc.svg

<svg height="18" viewBox="0 0 18 18" width="18" xmlns="http://www.w3.org/2000/svg"><path d="m0 0h18v18h-18z" fill="#017163"/><g fill="#fff000"><path d="m9 14.3a5.3 5.3 0 1 0 0-10.6 5.3 5.3 0 0 0 0 10.6zm0 .7a6 6 0 1 0 0-12 6 6 0 0 0 0 12z" fill-rule="evenodd"/><path d="m12 5h-5v8h1.5v-3.5h1.5l1-1.5h-2.5v-1.5h2.5z"/></g></svg>

<!-- by TradingView --><svg width="18" height="18" viewBox="0 0 18 18" xmlns="http://www.w3.org/2000/svg"><path fill="#017163" d="M0 0h18v18H0z"/><path fill-rule="evenodd" d="M9 14.3A5.3 5.3 0 1 0 9 3.7a5.3 5.3 0 0 0 0 10.6Zm0 .7A6 6 0 1 0 9 3a6 6 0 0 0 0 12Z" fill="#FFF000"/><path d="M12 5H7v8h1.5V9.5H10L11 8H8.5V6.5H11L12 5Z" fill="#FFF000"/></svg>
